assets/Diya lamp/Flat/diya_lamp_flat.svg

<svg width="32" height="32" viewBox="0 0 32 32" fill="none" xmlns="http://www.w3.org/2000/svg">
<path d="M29.24 16.58H22.83C21.92 11.7 17.64 8 12.5 8C7.93 8 4.04 10.92 2.6 15H2V18.41C2 18.44 2 18.47 2 18.5C2 18.53 2 18.56 2 18.59V18.97H2.01C2.26 24.55 6.86 29 12.5 29C15.5 29 18.2 27.74 20.12 25.73L29.24 16.58Z" fill="#7D4533"/>
<path d="M29.05 13.3L17.35 6.55C15.8 5.57 13.97 5 12 5C6.48 5 2 9.48 2 15C2 20.52 6.48 25 12 25C13.91 25 15.69 24.47 17.2 23.54L29.04 16.71C30.36 15.95 30.36 14.05 29.05 13.3Z" fill="#FF822D"/>
<path d="M13.0899 6.25001C13.0299 6.52001 13.2099 6.79001 13.4799 6.84001C13.5199 6.84001 13.5499 6.84001 13.5799 6.85001C13.8099 6.85001 14.0199 6.69001 14.0699 6.45001C14.1299 6.18001 13.9499 5.91001 13.6799 5.86001C13.4099 5.80001 13.1399 5.98001 13.0899 6.25001ZM6.85995 7.71997C6.71995 7.48997 6.78995 7.17997 7.02995 7.03997C7.25995 6.88997 7.56995 6.96997 7.70995 7.19997C7.84995 7.43997 7.77995 7.73997 7.53995 7.88997C7.46995 7.93997 7.37995 7.95997 7.28995 7.95997C7.11995 7.95997 6.94995 7.87997 6.85995 7.71997ZM19.0199 8.95C18.8799 9.19 18.9599 9.49 19.1999 9.63C19.2799 9.68 19.3599 9.7 19.4499 9.7C19.6199 9.7 19.7899 9.61 19.8799 9.45C20.0199 9.21 19.9399 8.91 19.6999 8.77C19.4599 8.63 19.1599 8.71 19.0199 8.95ZM24.8799 12.91C24.6399 12.77 24.5599 12.47 24.6999 12.23C24.8399 11.99 25.1399 11.91 25.3799 12.05C25.6199 12.19 25.6999 12.49 25.5599 12.73C25.4699 12.89 25.2999 12.98 25.1299 12.98C25.0499 12.97 24.9599 12.95 24.8799 12.91ZM2.91993 12.4C2.83993 12.66 2.98993 12.94 3.25993 13.02C3.29993 13.03 3.34993 13.04 3.39993 13.04C3.60993 13.04 3.80993 12.89 3.87993 12.68C3.94993 12.41 3.79993 12.13 3.53993 12.06C3.27993 11.98 2.99993 12.13 2.91993 12.4ZM25.98 17.04C25.84 16.8 25.92 16.5 26.16 16.36C26.4 16.22 26.7 16.3 26.84 16.54C26.98 16.78 26.9 17.09 26.66 17.22C26.58 17.27 26.49 17.29 26.41 17.29C26.24 17.29 26.08 17.2 25.98 17.04ZM3.73996 18.46C3.48996 18.58 3.38996 18.88 3.50996 19.13C3.59996 19.3 3.76996 19.4 3.95996 19.41C4.02996 19.41 4.10996 19.4 4.17996 19.36C4.42996 19.24 4.52996 18.94 4.40996 18.69C4.28996 18.44 3.98996 18.34 3.73996 18.46ZM20.3199 20.31C20.1799 20.07 20.2599 19.77 20.4999 19.63C20.7399 19.49 21.0399 19.57 21.1799 19.81C21.3199 20.05 21.2399 20.36 20.9999 20.49C20.9199 20.53 20.8299 20.56 20.7499 20.56C20.5799 20.56 20.4099 20.47 20.3199 20.31ZM8.20996 23.04C8.10996 23.3 8.22996 23.59 8.48996 23.69C8.54995 23.71 8.60994 23.72 8.66992 23.73L8.66996 23.73C8.86996 23.73 9.05996 23.61 9.13996 23.41C9.23996 23.15 9.11996 22.86 8.85996 22.76C8.59996 22.66 8.30996 22.78 8.20996 23.04ZM14.8599 22.77C14.5999 22.87 14.4699 23.16 14.5699 23.42C14.6399 23.61 14.8299 23.74 15.0399 23.74C15.0999 23.74 15.1599 23.73 15.2199 23.71C15.4799 23.61 15.6099 23.32 15.5099 23.06C15.4099 22.8 15.1199 22.67 14.8599 22.77Z" fill="#00D26A"/>
<path d="M10.24 5.81997C9.97001 5.86997 9.79001 6.12997 9.84001 6.39997C9.88001 6.63997 10.09 6.80997 10.33 6.80997C10.36 6.80997 10.39 6.80997 10.42 6.79997C10.69 6.75997 10.87 6.49997 10.82 6.22997C10.77 5.94997 10.51 5.76997 10.24 5.81997ZM16.34 7.98002C16.1 7.84002 16.03 7.53002 16.18 7.29002C16.33 7.05002 16.63 6.98002 16.87 7.13002C17.1 7.27002 17.18 7.58002 17.03 7.82002C16.94 7.97002 16.77 8.06002 16.6 8.06002C16.51 8.05002 16.42 8.03002 16.34 7.98002ZM4.46998 9.33C4.29998 9.55 4.33998 9.86 4.55998 10.03C4.64998 10.1 4.75998 10.14 4.85998 10.14C5.00998 10.14 5.15998 10.07 5.25998 9.94C5.42998 9.72 5.38998 9.41 5.16998 9.24C4.94998 9.07 4.63998 9.11 4.46998 9.33ZM22.04 11.27C21.8 11.13 21.72 10.83 21.86 10.59C22 10.35 22.3 10.27 22.54 10.41C22.78 10.55 22.86 10.85 22.72 11.09C22.63 11.25 22.46 11.34 22.29 11.34C22.2 11.34 22.12 11.31 22.04 11.27ZM27.59 13.85C27.34 13.98 27.25 14.29 27.38 14.53C27.47 14.7 27.64 14.8 27.83 14.8C27.91 14.8 27.99 14.78 28.06 14.74C28.31 14.61 28.4 14.3 28.27 14.06C28.14 13.81 27.83 13.72 27.59 13.85ZM2.57999 15.82C2.55999 15.55 2.75999 15.3 3.02999 15.28C3.30999 15.26 3.54999 15.46 3.56999 15.74C3.59999 16 3.39999 16.25 3.11999 16.27H3.07999C2.81999 16.27 2.59999 16.08 2.57999 15.82ZM23.33 17.99C23.09 18.13 23.01 18.43 23.15 18.67C23.24 18.83 23.41 18.92 23.58 18.92C23.67 18.92 23.75 18.9 23.83 18.85C24.07 18.72 24.15 18.41 24.01 18.17C23.88 17.93 23.57 17.85 23.33 17.99ZM5.56999 21.87C5.36999 21.68 5.34999 21.37 5.53999 21.16C5.72999 20.96 6.03999 20.94 6.24999 21.13C6.44999 21.32 6.46999 21.63 6.27999 21.84C6.17999 21.95 6.04999 22 5.90999 22C5.78999 22 5.66999 21.96 5.56999 21.87ZM17.66 21.26C17.42 21.39 17.34 21.7 17.48 21.94C17.57 22.1 17.74 22.19 17.91 22.19C18 22.19 18.08 22.17 18.16 22.12C18.4 21.98 18.48 21.68 18.34 21.44C18.21 21.2 17.9 21.12 17.66 21.26ZM11.87 23.32C11.59 23.32 11.37 23.54 11.37 23.82C11.37 24.1 11.59 24.32 11.87 24.32C12.15 24.32 12.37 24.1 12.37 23.82C12.37 23.54 12.15 23.32 11.87 23.32Z" fill="#FCD53F"/>
<path d="M12 22.5C7.86 22.5 4.5 19.14 4.5 15C4.5 10.86 7.87 7.5 12 7.5C13.42 7.5 14.81 7.9 16.01 8.66C16.05 8.69 16.09 8.71 16.13 8.73L26.31 14.6C26.61 14.78 26.61 15.22 26.31 15.39L15.95 21.37C15.93 21.38 15.91 21.39 15.89 21.4C14.73 22.12 13.38 22.5 12 22.5Z" fill="#FFB02E"/>
<path d="M11.64 20C14.4014 20 16.64 17.7614 16.64 15C16.64 12.2386 14.4014 10 11.64 10C8.87859 10 6.64001 12.2386 6.64001 15C6.64001 17.7614 8.87859 20 11.64 20Z" fill="#FFF478"/>
<path d="M26.6 11.375C26.9452 11.375 27.225 11.6548 27.225 12C27.225 14.0052 25.6052 15.625 23.6 15.625H22C21.6548 15.625 21.375 15.3452 21.375 15C21.375 14.6548 21.6548 14.375 22 14.375H23.6C24.9148 14.375 25.975 13.3148 25.975 12C25.975 11.6548 26.2548 11.375 26.6 11.375Z" fill="#321B41"/>
<path d="M29.5399 7.83L27.5499 4.45C27.1999 3.85 26.3199 3.85 25.9699 4.45L23.9799 7.84C23.9499 7.88 23.9299 7.93 23.8999 7.97L23.8899 7.99C23.6099 8.49 23.4699 9.07 23.4899 9.69C23.5599 11.41 24.9899 12.81 26.7199 12.83C28.5499 12.85 30.0399 11.38 30.0399 9.56C30.0299 8.93 29.8499 8.34 29.5399 7.83Z" fill="#F8312F"/>
<path d="M26.76 11.55C27.743 11.55 28.54 10.7531 28.54 9.76999C28.54 8.78692 27.743 7.98999 26.76 7.98999C25.7769 7.98999 24.98 8.78692 24.98 9.76999C24.98 10.7531 25.7769 11.55 26.76 11.55Z" fill="#FCD53F"/>
</svg>

<svg xmlns="http://www.w3.org/2000/svg" width="32" height="32" fill="none"><path fill="#7D4533" d="M29.24 16.58h-6.41C21.92 11.7 17.64 8 12.5 8c-4.57 0-8.46 2.92-9.9 7H2V18.97h.01C2.26 24.55 6.86 29 12.5 29c3 0 5.7-1.26 7.62-3.27l9.12-9.15Z"/><path fill="#FF822D" d="m29.05 13.3-11.7-6.75A9.969 9.969 0 0 0 12 5C6.48 5 2 9.48 2 15s4.48 10 10 10c1.91 0 3.69-.53 5.2-1.46l11.84-6.83c1.32-.76 1.32-2.66.01-3.41Z"/><path fill="#00D26A" d="M13.09 6.25c-.06.27.12.54.39.59.04 0 .07 0 .1.01a.501.501 0 1 0-.49-.6ZM6.86 7.72a.493.493 0 0 1 .17-.68.49.49 0 0 1 .68.16c.14.24.07.54-.17.69a.43.43 0 0 1-.25.07c-.17 0-.34-.08-.43-.24Zm12.16 1.23c-.14.24-.06.54.18.68a.495.495 0 0 0 .68-.18c.14-.24.06-.54-.18-.68a.493.493 0 0 0-.68.18Zm5.86 3.96a.493.493 0 0 1-.18-.68c.14-.24.44-.32.68-.18.24.14.32.44.18.68-.09.16-.26.25-.43.25a.783.783 0 0 1-.25-.07ZM2.92 12.4a.497.497 0 0 0 .48.64c.21 0 .41-.15.48-.36a.505.505 0 0 0-.34-.62.497.497 0 0 0-.62.34Zm23.06 4.64a.493.493 0 0 1 .18-.68c.24-.14.54-.06.68.18s.06.55-.18.68c-.08.05-.17.07-.25.07-.17 0-.33-.09-.43-.25ZM3.74 18.46a.5.5 0 0 0-.23.67c.09.17.26.27.45.28a.5.5 0 1 0-.22-.95Zm16.58 1.85a.493.493 0 0 1 .18-.68c.24-.14.54-.06.68.18s.06.55-.18.68a.59.59 0 0 1-.25.07c-.17 0-.34-.09-.43-.25ZM8.21 23.04c-.1.26.02.55.28.65.06.02.12.03.18.04.2 0 .39-.12.47-.32.1-.26-.02-.55-.28-.65-.26-.1-.55.02-.65.28Zm6.65-.27a.503.503 0 1 0 .358.94.503.503 0 0 0-.358-.94Z"/><path fill="#FCD53F" d="M10.24 5.82a.499.499 0 0 0 .09.99c.03 0 .06 0 .09-.01.27-.04.45-.3.4-.57a.498.498 0 0 0-.58-.41Zm6.1 2.16a.49.49 0 0 1-.16-.69c.15-.24.45-.31.69-.16a.5.5 0 0 1 .16.69c-.09.15-.26.24-.43.24a.607.607 0 0 1-.26-.08ZM4.47 9.33c-.17.22-.13.53.09.7.09.07.2.11.3.11.15 0 .3-.07.4-.2.17-.22.13-.53-.09-.7a.496.496 0 0 0-.7.09Zm17.57 1.94a.493.493 0 0 1-.18-.68c.14-.24.44-.32.68-.18.24.14.32.44.18.68-.09.16-.26.25-.43.25-.09 0-.17-.03-.25-.07Zm5.55 2.58c-.25.13-.34.44-.21.68a.502.502 0 1 0 .89-.47.501.501 0 0 0-.68-.21ZM2.58 15.82c-.02-.27.18-.52.45-.54.28-.02.52.18.54.46.03.26-.17.51-.45.53h-.04c-.26 0-.48-.19-.5-.45Zm20.75 2.17c-.24.14-.32.44-.18.68a.495.495 0 0 0 .68.18c.24-.13.32-.44.18-.68a.491.491 0 0 0-.68-.18ZM5.57 21.87c-.2-.19-.22-.5-.03-.71.19-.2.5-.22.71-.03.2.19.22.5.03.71-.1.11-.23.16-.37.16-.12 0-.24-.04-.34-.13Zm12.09-.61c-.24.13-.32.44-.18.68a.495.495 0 0 0 .68.18c.24-.14.32-.44.18-.68a.491.491 0 0 0-.68-.18Zm-5.79 2.06c-.28 0-.5.22-.5.5s.22.5.5.5.5-.22.5-.5-.22-.5-.5-.5Z"/><path fill="#FFB02E" d="M12 22.5c-4.14 0-7.5-3.36-7.5-7.5 0-4.14 3.37-7.5 7.5-7.5 1.42 0 2.81.4 4.01 1.16.04.03.08.05.12.07l10.18 5.87c.3.18.3.62 0 .79l-10.36 5.98-.06.03c-1.16.72-2.51 1.1-3.89 1.1Z"/><path fill="#FFF478" d="M11.64 20a5 5 0 1 0 0-10 5 5 0 0 0 0 10Z"/><path fill="#321B41" d="M26.6 11.375c.345 0 .625.28.625.625a3.621 3.621 0 0 1-3.625 3.625H22a.625.625 0 1 1 0-1.25h1.6A2.371 2.371 0 0 0 25.975 12c0-.345.28-.625.625-.625Z"/><path fill="#F8312F" d="m29.54 7.83-1.99-3.38a.918.918 0 0 0-1.58 0l-1.99 3.39c-.03.04-.05.09-.08.13l-.01.02c-.28.5-.42 1.08-.4 1.7.07 1.72 1.5 3.12 3.23 3.14 1.83.02 3.32-1.45 3.32-3.27-.01-.63-.19-1.22-.5-1.73Z"/><path fill="#FCD53F" d="M26.76 11.55a1.78 1.78 0 1 0 0-3.56 1.78 1.78 0 0 0 0 3.56Z"/></svg>
